X:107
T:St. Anne's Reel
C:Traditional
M:4/4
L:1/8
Q:1/8=400
K:D
de|:f2fg fedB|A2F2 Fdcd|BAGA BcdB|ABAG FED2|
f2fg fedB|A2F2 Fdcd|Bcde fdec|1 dAFA D2de:|2 dBAF D2ag|
|:fedc defg|agfa gafg|edcd efge|b2a2 a2ag|
fdec defg|agfa gafg|1 edcB ABce|dBAF Da^ga:|2 edcB AGFE|DB,A,F D4|
